actions/16/edit-copy-path.svg

<!DOCTYPE svg>
<svg viewBox="0 0 16 16" version="1.1" xmlns="http://www.w3.org/2000/svg">
    <defs>
<style type="text/css" id="current-color-scheme">.ColorScheme-Text {color:#fcfcfc;}</style>
    </defs>
    <path class="ColorScheme-Text" 
          style="fill:currentColor; fill-opacity:1; stroke:none" 
          d="M 2,2 V 3 H 3 V 13 H 2 v 1 H 5 V 13 H 4 V 3 H 5 V 2 Z m 4,1 v 1 h 6 c 0,0 1,0 1,1 0,1 0,5 0,6 0,1 -1,1 -1,1 H 6 v 1 h 6 c 0,0 2,0 2,-2 0,-2 0,-4 0,-6 0,-2 -2,-2 -2,-2 z m 3,2 -2,6 h 1 l 2,-6 z m 2,0 -2,6 h 1 l 2,-6 z m -6,5 v 1 h 1 v -1 z"
    />
</svg>

<!DOCTYPE svg>
<svg viewBox="0 0 16 16" version="1.1" xmlns="http://www.w3.org/2000/svg">
    <defs>
        <style type="text/css" id="current-color-scheme">
            .ColorScheme-Text {
                color:#eff0f1;
            }
        </style>
    </defs>
    <path class="ColorScheme-Text" 
          style="fill:currentColor; fill-opacity:1; stroke:none" 
          d="M 2 2 L 2 3 L 3 3 L 3 13 L 2 13 L 2 14 L 5 14 L 5 13 L 4 13 L 4 3 L 5 3 L 5 2 L 2 2 z M 6 3 L 6 4 L 13 4 L 13 12 L 6 12 L 6 13 L 14 13 L 14 3 L 6 3 z M 9 5 L 7 11 L 8 11 L 10 5 L 9 5 z M 11 5 L 9 11 L 10 11 L 12 5 L 11 5 z M 5 10 L 5 11 L 6 11 L 6 10 L 5 10 z "
    />
</svg>
